components/brave_wallet_ui/page/screens/swap/assets/lp-icons/serum.svg

<svg width="29" height="29" viewBox="0 0 29 29" fill="none" xmlns="http://www.w3.org/2000/svg">
    <g clip-path="url(#clip0)">
        <path
            d="M14.5466 21.8379C11.1071 21.8379 8.31396 19.0448 8.31396 15.6052C8.31396 12.2615 13.9561 6.35599 14.1955 6.1086L14.4908 5.79736L14.794 6.10062C15.0414 6.34801 20.7793 12.2535 20.7793 15.5973C20.7793 19.0448 17.9862 21.8379 14.5466 21.8379ZM14.4987 7.0024C14.004 7.53708 12.9665 8.69424 11.937 10.0509C10.1095 12.461 9.14392 14.3763 9.14392 15.5973C9.14392 18.5739 11.57 21 14.5466 21C17.5233 21 19.9493 18.5739 19.9493 15.5973C19.9493 14.3763 18.9677 12.461 17.1083 10.0509C16.0629 8.70222 15.0015 7.53708 14.4987 7.0024Z"
            fill="url(#paint0_linear)" />
        <path
            d="M14.5466 23.833C10.0058 23.833 6.31885 20.1381 6.31885 15.6052C6.31885 11.1681 12.5116 4.97536 12.775 4.71999C12.9346 4.56038 13.2059 4.56038 13.3655 4.71999C13.5251 4.8796 13.5251 5.15093 13.3655 5.31054C13.3017 5.37438 7.15679 11.5193 7.15679 15.6052C7.15679 19.6832 10.4766 23.003 14.5546 23.003C18.6325 23.003 21.9524 19.6832 21.9524 15.6052C21.9524 13.9293 20.8671 11.615 18.8081 8.89372C17.228 6.81084 15.6399 5.23073 15.624 5.21477C15.4564 5.05517 15.4564 4.79181 15.624 4.62423C15.7836 4.45664 16.0469 4.45664 16.2145 4.62423C16.4858 4.88758 22.7903 11.1601 22.7903 15.6052C22.7744 20.1381 19.0874 23.833 14.5466 23.833Z"
            fill="url(#paint1_linear)" />
        <path
            d="M14.5466 25.8281C9.02419 25.8281 4.53125 21.3352 4.53125 15.8128C4.53125 13.5304 5.68042 10.7213 7.93887 7.47329C9.60676 5.07918 11.2427 3.37138 11.3146 3.29956C11.4742 3.13197 11.7375 3.13197 11.9051 3.29158C12.0727 3.45118 12.0727 3.71454 11.9131 3.88212C11.8971 3.89809 10.2452 5.62184 8.6172 7.96009C6.48644 11.0166 5.36121 13.7299 5.36121 15.8128C5.36121 20.8723 9.47908 24.9982 14.5466 24.9982C19.6141 24.9982 23.732 20.8803 23.732 15.8128C23.732 13.7299 22.5988 11.0166 20.4521 7.96009C18.8081 5.62184 17.1402 3.89809 17.1243 3.88212C16.9647 3.71454 16.9647 3.45118 17.1322 3.29158C17.2998 3.13197 17.5632 3.13197 17.7228 3.29956C18.0021 3.58685 24.562 10.4021 24.562 15.8128C24.562 21.3352 20.069 25.8281 14.5466 25.8281Z"
            fill="url(#paint2_linear)" />
    </g>
    <defs>
        <linearGradient id="paint0_linear" x1="14.5466" y1="21.8369" x2="14.5466" y2="5.79638"
            gradientUnits="userSpaceOnUse">
            <stop stop-color="#05AAC5" />
            <stop offset="1" stop-color="#71E0EC" />
        </linearGradient>
        <linearGradient id="paint1_linear" x1="14.5546" y1="23.832" x2="14.5546" y2="4.49756"
            gradientUnits="userSpaceOnUse">
            <stop stop-color="#05AAC5" />
            <stop offset="1" stop-color="#71E0EC" />
        </linearGradient>
        <linearGradient id="paint2_linear" x1="14.5466" y1="25.8271" x2="14.5466" y2="3.17187"
            gradientUnits="userSpaceOnUse">
            <stop stop-color="#05AAC5" />
            <stop offset="1" stop-color="#71E0EC" />
        </linearGradient>
        <clipPath id="clip0">
            <rect width="20.0307" height="22.6562" fill="white" transform="translate(4.53125 3.17188)" />
        </clipPath>
    </defs>
</svg>

<svg xmlns="http://www.w3.org/2000/svg" width="29" height="29" fill="none"><g clip-path="url(#a)"><path fill="url(#b)" d="M14.547 21.838a6.236 6.236 0 0 1-6.233-6.233c0-3.344 5.642-9.249 5.881-9.496l.296-.312.303.304c.247.247 5.985 6.153 5.985 9.496a6.238 6.238 0 0 1-6.232 6.24Zm-.048-14.836a42.811 42.811 0 0 0-2.562 3.049c-1.827 2.41-2.793 4.325-2.793 5.546A5.412 5.412 0 0 0 14.547 21a5.412 5.412 0 0 0 5.402-5.403c0-1.22-.981-3.136-2.84-5.546a44.335 44.335 0 0 0-2.61-3.049Z"/><path fill="url(#c)" d="M14.547 23.833c-4.541 0-8.228-3.695-8.228-8.228 0-4.437 6.193-10.63 6.456-10.885.16-.16.43-.16.59 0 .16.16.16.43 0 .59-.063.064-6.208 6.21-6.208 10.295 0 4.078 3.32 7.398 7.398 7.398 4.078 0 7.397-3.32 7.397-7.398 0-1.676-1.085-3.99-3.144-6.711-1.58-2.083-3.168-3.663-3.184-3.68a.41.41 0 0 1 0-.59.41.41 0 0 1 .59 0c.272.264 6.576 6.536 6.576 10.981-.016 4.533-3.703 8.228-8.243 8.228Z"/><path fill="url(#d)" d="M14.547 25.828c-5.523 0-10.016-4.493-10.016-10.015 0-2.283 1.15-5.092 3.408-8.34C9.607 5.08 11.243 3.371 11.315 3.3a.417.417 0 1 1 .598.582A37.299 37.299 0 0 0 8.617 7.96c-2.13 3.057-3.256 5.77-3.256 7.853 0 5.06 4.118 9.185 9.186 9.185 5.067 0 9.185-4.118 9.185-9.185 0-2.083-1.133-4.796-3.28-7.853a37.446 37.446 0 0 0-3.328-4.078.417.417 0 1 1 .598-.583c.28.288 6.84 7.103 6.84 12.514 0 5.522-4.493 10.015-10.015 10.015Z"/></g><defs><linearGradient id="b" x1="14.547" x2="14.547" y1="21.837" y2="5.796" gradientUnits="userSpaceOnUse"><stop stop-color="#05AAC5"/><stop offset="1" stop-color="#71E0EC"/></linearGradient><linearGradient id="c" x1="14.555" x2="14.555" y1="23.832" y2="4.498" gradientUnits="userSpaceOnUse"><stop stop-color="#05AAC5"/><stop offset="1" stop-color="#71E0EC"/></linearGradient><linearGradient id="d" x1="14.547" x2="14.547" y1="25.827" y2="3.172" gradientUnits="userSpaceOnUse"><stop stop-color="#05AAC5"/><stop offset="1" stop-color="#71E0EC"/></linearGradient><clipPath id="a"><path fill="#fff" d="M4.531 3.172h20.031v22.656H4.532z"/></clipPath></defs></svg>
